storage/app/icons/phosphoricons/thin/car-profile-thin.svg

<svg xmlns="http://www.w3.org/2000/svg" fill="currentColor" viewBox="0 0 256 256"><path d="M240 116h-30.34l-44.49-44.48a11.9 11.9 0 0 0-8.48-3.52H44.28a12 12 0 0 0-10 5.34L4.67 117.78A4 4 0 0 0 4 120v48a12 12 0 0 0 12 12h20.29a28 28 0 0 0 55.42 0h72.58a28 28 0 0 0 55.42 0H240a12 12 0 0 0 12-12v-40a12 12 0 0 0-12-12M41 77.78A4 4 0 0 1 44.28 76h112.41a4 4 0 0 1 2.82 1.17L198.34 116H15.47ZM64 196a20 20 0 1 1 20-20 20 20 0 0 1-20 20m128 0a20 20 0 1 1 20-20 20 20 0 0 1-20 20m52-28a4 4 0 0 1-4 4h-20.29a28 28 0 0 0-55.42 0H91.71a28 28 0 0 0-55.42 0H16a4 4 0 0 1-4-4v-44h228a4 4 0 0 1 4 4Z"/></svg>

<svg xmlns="http://www.w3.org/2000/svg" viewBox="0 0 256 256" fill="currentColor"><path d="M240,116H209.66L165.17,71.52A11.9,11.9,0,0,0,156.69,68H44.28a12,12,0,0,0-10,5.34L4.67,117.78A4,4,0,0,0,4,120v48a12,12,0,0,0,12,12H36.29a28,28,0,0,0,55.42,0h72.58a28,28,0,0,0,55.42,0H240a12,12,0,0,0,12-12V128A12,12,0,0,0,240,116ZM41,77.78A4,4,0,0,1,44.28,76H156.69a4,4,0,0,1,2.82,1.17L198.34,116H15.47ZM64,196a20,20,0,1,1,20-20A20,20,0,0,1,64,196Zm128,0a20,20,0,1,1,20-20A20,20,0,0,1,192,196Zm52-28a4,4,0,0,1-4,4H219.71a28,28,0,0,0-55.42,0H91.71a28,28,0,0,0-55.42,0H16a4,4,0,0,1-4-4V124H240a4,4,0,0,1,4,4Z"/></svg>
